X:1
T:High Reel, The
R:reel
M:4/4
L:1/8
K:Amix
a2fa eA~A2|cAeA fAeA|a2fa eA~A2|Bcdc BG~G2|
a2fa eA~A2|(3Bcd ef g2fg|afge fdec|Bcdc BG~G2:|
|:(3cBA eA fAed|(3cBA af eA~A2|(3cBA eA fAec|Bcdc BG~G2|
(3cBA eA fAeA|(3Bcd ef g2fg|afge fdec|Bcdc BG~G2:|
</abc>
